dist/assets/img/svg/icon-search.svg

<svg width="20" height="20" viewBox="0 0 20 20" fill="none" xmlns="http://www.w3.org/2000/svg">
<path d="M8.3999 0.399902C3.9911 0.399902 0.399902 3.9911 0.399902 8.3999C0.399902 12.8087 3.9911 16.3999 8.3999 16.3999C10.3171 16.3999 12.0778 15.7191 13.4577 14.589L18.2343 19.3655C18.308 19.4423 18.3963 19.5036 18.494 19.5458C18.5917 19.5881 18.6968 19.6104 18.8033 19.6115C18.9097 19.6125 19.0153 19.5924 19.1138 19.5521C19.2124 19.5119 19.3019 19.4524 19.3772 19.3772C19.4524 19.3019 19.5119 19.2124 19.5521 19.1138C19.5924 19.0153 19.6125 18.9097 19.6115 18.8033C19.6104 18.6968 19.5881 18.5917 19.5458 18.494C19.5036 18.3963 19.4423 18.308 19.3655 18.2343L14.589 13.4577C15.7191 12.0778 16.3999 10.3171 16.3999 8.3999C16.3999 3.9911 12.8087 0.399902 8.3999 0.399902ZM8.3999 1.9999C11.944 1.9999 14.7999 4.8558 14.7999 8.3999C14.7999 11.944 11.944 14.7999 8.3999 14.7999C4.8558 14.7999 1.9999 11.944 1.9999 8.3999C1.9999 4.8558 4.8558 1.9999 8.3999 1.9999Z" fill="#5C93F5"/>
</svg>

<svg width="20" height="20" fill="none" xmlns="http://www.w3.org/2000/svg"><path d="M8.4.4c-4.41 0-8 3.59-8 8s3.591 8 8 8c1.917 0 3.678-.68 5.058-1.811l4.776 4.777a.8.8 0 101.131-1.132l-4.776-4.776a7.958 7.958 0 001.81-5.058c0-4.409-3.59-8-8-8zm0 1.6c3.544 0 6.4 2.856 6.4 6.4 0 3.544-2.856 6.4-6.4 6.4A6.388 6.388 0 012 8.4C2 4.856 4.856 2 8.4 2z" fill="#5C93F5"/></svg>15C18.9097 19.6125 19.0153 19.5924 19.1138 19.5521C19.2124 19.5119 19.3019 19.4524 19.3772 19.3772C19.4524 19.3019 19.5119 19.2124 19.5521 19.1138C19.5924 19.0153 19.6125 18.9097 19.6115 18.8033C19.6104 18.6968 19.5881 18.5917 19.5458 18.494C19.5036 18.3963 19.4423 18.308 19.3655 18.2343L14.589 13.4577C15.7191 12.0778 16.3999 10.3171 16.3999 8.3999C16.3999 3.9911 12.8087 0.399902 8.3999 0.399902ZM8.3999 1.9999C11.944 1.9999 14.7999 4.8558 14.7999 8.3999C14.7999 11.944 11.944 14.7999 8.3999 14.7999C4.8558 14.7999 1.9999 11.944 1.9999 8.3999C1.9999 4.8558 4.8558 1.9999 8.3999 1.9999Z" fill="#5C93F5"/>
</svg>
